;FLAVOR:Marlin
;TIME:32746
;Filament used: 32.7382m
;Layer height: 0.2
;MINX:9.004
;MINY:43.7
;MINZ:0.18
;MAXX:240.996
;MAXY:211.3
;MAXZ:31.98
;Generated with Cura_SteamEngine 5.2.2
M140 S70
M105
M190 S70
M104 S215
M105
M109 S215
M82 ;absolute extrusion mode
G21 ;metric values
G90 ;absolute positioning
M82 ;set extruder to absolute mode
M107 ;start with the fan off
G28 X0 Y0 ;move X/Y to min endstops
M300 S1318 P266
G28 Z0 ;move Z to min endstops
G0 Z0.2
G92 E0 ;zero the extruded length
G1 X40 E25 F400 ; Extrude 25mm of filament in a 4cm line. Reduce speed (F) if you have a nozzle smaller than 0.4mm!
G92 E0 ;zero the extruded length again
G1 E-1 F500 ; Retract a little
G1 X80 F4000 ; Quickly wipe away from the filament line
M117 ; Printing…
G5
G92 E0
G92 E0
G1 F1500 E-6.5
;LAYER_COUNT:160
;LAYER:0
M107
G0 F3600 X17.073 Y44.627 Z0.18
;TYPE:SKIRT
G1 F1500 E0
G1 F1800 X18.129 Y44.259 E0.03347
G1 X18.887 Y44.038 E0.05711
G1 X19.822 Y43.874 E0.08553
G1 X20.931 Y43.749 E0.11893
G1 X21.805 Y43.7 E0.14514
G1 X213.754 Y43.7 E5.89096
G1 X214.543 Y43.74 E5.91461
G1 X215.323 Y43.859 E5.93823
G1 X216.088 Y44.057 E5.96188
G1 X216.828 Y44.331 E5.9855
G1 X217.537 Y44.679 E6.00914
G1 X218.208 Y45.097 E6.03281
G1 X218.832 Y45.58 E6.05643
G1 X219.405 Y46.123 E6.08006
G1 X219.92 Y46.722 E6.10371
G1 X220.371 Y47.37 E6.12734
G1 X220.755 Y48.061 E6.151
G1 X221.067 Y48.786 E6.17463
G1 X221.304 Y49.539 E6.19826
G1 X221.463 Y50.313 E6.22191
G1 X221.554 Y51.195 E6.24846
G1 X221.554 Y78.482 E7.06527
G1 X221.514 Y79.271 E7.08892
G1 X221.395 Y80.051 E7.11254
G1 X221.197 Y80.816 E7.13619
G1 X220.923 Y81.556 E7.15981
G1 X220.575 Y82.265 E7.18345
G1 X220.157 Y82.936 E7.20712
G1 X219.674 Y83.56 E7.23074
G1 X219.131 Y84.133 E7.25437
G1 X218.532 Y84.648 E7.27801
G1 X217.884 Y85.099 E7.30165
G1 X217.193 Y85.483 E7.32531
G1 X216.468 Y85.795 E7.34894
G1 X215.701 Y86.035 E7.37299
G1 X216.088 Y86.135 E7.38496
G1 X216.828 Y86.409 E7.40858
G1 X217.537 Y86.757 E7.43222
G1 X218.208 Y87.175 E7.45589
G1 X218.832 Y87.658 E7.47951
G1 X219.405 Y88.201 E7.50314
G1 X219.92 Y88.8 E7.52678
G1 X220.371 Y89.448 E7.55042
G1 X220.755 Y90.139 E7.57408
G1 X221.067 Y90.864 E7.59771
G1 X221.304 Y91.617 E7.62134
G1 X221.463 Y92.391 E7.64499
G1 X221.554 Y93.273 E7.67153
G1 X221.554 Y161.571 E9.71597
G1 X233.196 Y161.571 E10.06447
G1 X233.985 Y161.611 E10.08812
G1 X234.765 Y161.73 E10.11173
G1 X235.53 Y161.928 E10.13539
G1 X236.27 Y162.202 E10.15901
G1 X236.979 Y162.55 E10.18265
G1 X237.65 Y162.968 E10.20632
G1 X238.274 Y163.451 E10.22994
G1 X238.847 Y163.994 E10.25357
G1 X239.362 Y164.593 E10.27721
G1 X239.813 Y165.241 E10.30085
G1 X240.197 Y165.932 E10.32451
G1 X240.509 Y166.657 E10.34814
G1 X240.746 Y167.41 E10.37177
G1 X240.905 Y168.184 E10.39542
G1 X240.996 Y169.066 E10.42196
G1 X240.996 Y183.209 E10.84532
G1 X240.956 Y183.998 E10.86897
G1 X240.837 Y184.778 E10.89259
G1 X240.639 Y185.543 E10.91624
G1 X240.365 Y186.283 E10.93986
G1 X240.017 Y186.992 E10.9635
G1 X239.599 Y187.663 E10.98717
G1 X239.116 Y188.287 E11.01079
G1 X238.573 Y188.86 E11.03442
G1 X237.974 Y189.375 E11.05807
G1 X237.326 Y189.826 E11.0817
G1 X236.635 Y190.21 E11.10536
G1 X235.91 Y190.522 E11.12899
G1 X235.157 Y190.759 E11.15262
G1 X234.383 Y190.918 E11.17627
G1 X233.501 Y191.009 E11.20282
G1 X221.554 Y191.009 E11.56044
G1 X221.554 Y203.5 E11.93435
G1 X221.514 Y204.289 E11.95799
G1 X221.395 Y205.069 E11.98161
G1 X221.197 Y205.834 E12.00527
G1 X220.923 Y206.574 E12.02889
G1 X220.575 Y207.283 E12.05253
G1 X220.157 Y207.954 E12.07619
G1 X219.674 Y208.578 E12.09981
G1 X219.131 Y209.151 E12.12345
G1 X218.532 Y209.666 E12.14709
G1 X217.884 Y210.117 E12.17072
G1 X217.193 Y210.501 E12.19439
G1 X216.468 Y210.813 E12.21802
G1 X215.715 Y211.05 E12.24165
G1 X214.941 Y211.209 E12.2653
G1 X214.059 Y211.3 E12.29184
G1 X21.798 Y211.299 E18.047
G1 X20.923 Y211.25 E18.07324
G1 X19.816 Y211.125 E18.10659
G1 X19.037 Y210.997 E18.13022
G1 X18.124 Y210.739 E18.15862
G1 X17.074 Y210.373 E18.1919
G1 X16.342 Y210.076 E18.21555
G1 X15.497 Y209.616 E18.24435
G1 X14.545 Y209.019 E18.27799
G1 X13.898 Y208.566 E18.30163
G1 X13.174 Y207.926 E18.33055
G1 X12.379 Y207.131 E18.36421
G1 X11.849 Y206.545 E18.38786
G1 X11.286 Y205.76 E18.41678
G1 X10.689 Y204.808 E18.45042
G1 X10.304 Y204.119 E18.47404
G1 X9.931 Y203.229 E18.50293
G1 X9.563 Y202.172 E18.53643
G1 X9.341 Y201.414 E18.56007
G1 X9.178 Y200.483 E18.58837
G1 X9.053 Y199.377 E18.62168
G1 X9.004 Y198.501 E18.64795
G1 X9.005 Y56.494 E22.8988
G1 X9.054 Y55.618 E22.92507
G1 X9.179 Y54.512 E22.95838
G1 X9.308 Y53.733 E22.98202
G1 X9.564 Y52.823 E23.01032
G1 X9.93 Y51.772 E23.04363
G1 X10.227 Y51.04 E23.06728
G1 X10.688 Y50.193 E23.09614
G1 X11.285 Y49.241 E23.12978
G1 X11.738 Y48.594 E23.15342
G1 X12.378 Y47.87 E23.18235
G1 X13.173 Y47.075 E23.216
G1 X13.759 Y46.545 E23.23966
G1 X14.544 Y45.982 E23.26857
G1 X15.496 Y45.385 E23.30221
G1 X16.185 Y45 E23.32584
G1 X17.073 Y44.627 E23.35467
G0 F3600 X17.205 Y45.005
G1 F1800 X18.261 Y44.637 E23.38814
G1 X18.999 Y44.422 E23.41115
G1 X19.867 Y44.272 E23.43752
G1 X20.976 Y44.147 E23.47093
G1 X21.805 Y44.1 E23.49578
G1 X213.754 Y44.1 E29.24161
G1 X214.522 Y44.14 E29.26463
G1 X215.282 Y44.259 E29.28766
G1 X216.025 Y44.457 E29.31067
G1 X216.744 Y44.731 E29.33371
G1 X217.43 Y45.078 E29.35672
G1 X218.077 Y45.494 E29.37974
G1 X218.677 Y45.975 E29.40276
G1 X219.224 Y46.516 E29.42579
G1 X219.712 Y47.111 E29.44883
G1 X220.135 Y47.753 E29.47184
G1 X220.49 Y48.436 E29.49488
G1 X220.771 Y49.151 E29.51788
G1 X220.977 Y49.893 E29.54093
G1 X221.105 Y50.651 E29.56394
G1 X221.154 Y51.5 E29.5894
G1 X221.154 Y78.482 E30.39708
G1 X221.114 Y79.25 E30.4201
G1 X220.995 Y80.01 E30.44313
G1 X220.797 Y80.753 E30.46615
G1 X220.523 Y81.472 E30.48918
G1 X220.176 Y82.158 E30.51219
G1 X219.76 Y82.805 E30.53522
G1 X219.279 Y83.405 E30.55823
G1 X218.738 Y83.952 E30.58126
G1 X218.143 Y84.44 E30.6043
G1 X217.501 Y84.863 E30.62731
G1 X216.818 Y85.218 E30.65036
G1 X216.103 Y85.499 E30.67335
G1 X215.361 Y85.705 E30.6964
G1 X214.603 Y85.833 E30.71941
G1 X213.754 Y85.882 E30.74487
G1 X200.026 Y85.882 E31.15581
G1 X200.026 Y86.178 E31.16467
G1 X213.754 Y86.178 E31.5756
G1 X214.522 Y86.218 E31.59862
G1 X215.282 Y86.337 E31.62165
G1 X216.025 Y86.535 E31.64467
G1 X216.744 Y86.809 E31.6677
G1 X217.43 Y87.156 E31.69071
G1 X218.077 Y87.572 E31.71374
G1 X218.677 Y88.053 E31.73676
G1 X219.224 Y88.594 E31.75979
G1 X219.712 Y89.189 E31.78282
G1 X220.135 Y89.831 E31.80584
G1 X220.49 Y90.514 E31.82888
G1 X220.771 Y91.229 E31.85187
G1 X220.977 Y91.971 E31.87493
G1 X221.105 Y92.729 E31.89794
G1 X221.154 Y93.578 E31.92339
G1 X221.154 Y161.971 E33.97068
G1 X233.196 Y161.971 E34.33114
G1 X233.964 Y162.011 E34.35416
G1 X234.724 Y162.13 E34.37719
G1 X235.467 Y162.328 E34.40021
G1 X236.186 Y162.602 E34.42324
G1 X236.872 Y162.949 E34.44625
G1 X237.519 Y163.365 E34.46928
G1 X238.119 Y163.846 E34.4923
G1 X238.666 Y164.387 E34.51533
G1 X239.154 Y164.982 E34.53836
G1 X239.577 Y165.624 E34.56138
G1 X239.932 Y166.307 E34.58442
G1 X240.213 Y167.022 E34.60742
G1 X240.419 Y167.764 E34.63047
G1 X240.547 Y168.522 E34.65348
G1 X240.596 Y169.371 E34.67893
G1 X240.596 Y183.209 E35.09316
G1 X240.556 Y183.977 E35.11618
G1 X240.437 Y184.737 E35.13921
G1 X240.239 Y185.48 E35.16223
G1 X239.965 Y186.199 E35.18526
G1 X239.618 Y186.885 E35.20827
G1 X239.202 Y187.532 E35.2313
G1 X238.721 Y188.132 E35.25432
G1 X238.18 Y188.679 E35.27735
G1 X237.585 Y189.167 E35.30038
G1 X236.943 Y189.59 E35.3234
G1 X236.26 Y189.945 E35.34644
G1 X235.545 Y190.226 E35.36943
G1 X234.803 Y190.432 E35.39249
G1 X234.045 Y190.56 E35.4155
G1 X233.196 Y190.609 E35.44095
G1 X221.154 Y190.609 E35.80142
G1 X221.154 Y203.5 E36.1873
G1 X221.114 Y204.268 E36.21032
G1 X220.995 Y205.028 E36.23335
G1 X220.797 Y205.771 E36.25637
G1 X220.523 Y206.49 E36.2794
G1 X220.176 Y207.176 E36.30241
G1 X219.76 Y207.823 E36.32544
G1 X219.279 Y208.423 E36.34845
G1 X218.738 Y208.97 E36.37148
G1 X218.143 Y209.458 E36.39452
G1 X217.501 Y209.881 E36.41753
G1 X216.818 Y210.236 E36.44058
G1 X216.103 Y210.517 E36.46357
G1 X215.361 Y210.723 E36.48662
G1 X214.603 Y210.851 E36.50963
G1 X213.754 Y210.9 E36.53509
G1 X21.798 Y210.899 E42.28113
G1 X20.968 Y210.852 E42.30601
G1 X19.861 Y210.727 E42.33936
G1 X19.102 Y210.601 E42.36239
G1 X18.255 Y210.362 E42.38873
G1 X17.205 Y209.996 E42.42202
G1 X16.493 Y209.705 E42.44504
G1 X15.71 Y209.277 E42.47175
G1 X14.758 Y208.68 E42.50539
G1 X14.128 Y208.238 E42.52843
G1 X13.456 Y207.644 E42.55528
G1 X12.661 Y206.849 E42.58893
G1 X12.147 Y206.277 E42.61195
G1 X11.625 Y205.547 E42.63881
G1 X11.028 Y204.595 E42.67245
G1 X10.654 Y203.923 E42.69547
G1 X10.308 Y203.097 E42.72228
G1 X9.94 Y202.04 E42.75578
G1 X9.726 Y201.302 E42.77878
G1 X9.576 Y200.438 E42.80503
G1 X9.451 Y199.332 E42.83835
G1 X9.404 Y198.501 E42.86327
G1 X9.405 Y56.494 E47.11412
G1 X9.452 Y55.663 E47.13904
G1 X9.577 Y54.557 E47.17236
G1 X9.703 Y53.798 E47.19539
G1 X9.942 Y52.954 E47.22164
G1 X10.308 Y51.903 E47.25496
G1 X10.598 Y51.191 E47.27797
G1 X11.027 Y50.406 E47.30475
G1 X11.624 Y49.454 E47.33839
G1 X12.066 Y48.824 E47.36142
G1 X12.66 Y48.152 E47.38827
G1 X13.455 Y47.357 E47.42193
G1 X14.027 Y46.843 E47.44495
G1 X14.757 Y46.321 E47.47181
G1 X15.709 Y45.724 E47.50545
G1 X16.381 Y45.35 E47.52847
G1 X17.205 Y45.005 E47.55521
G0 F3600 X17.336 Y45.383
G1 F1800 X18.392 Y45.015 E47.58868
G1 X19.111 Y44.807 E47.61109
G1 X19.912 Y44.669 E47.63542
G1 X21.021 Y44.544 E47.66883
G1 X21.805 Y44.5 E47.69233
G1 X213.754 Y44.5 E53.43816
G1 X214.501 Y44.54 E53.46055
G1 X215.239 Y44.659 E53.48293
G1 X215.961 Y44.857 E53.50534
G1 X216.657 Y45.13 E53.52772
G1 X217.32 Y45.477 E53.55012
G1 X217.943 Y45.892 E53.57252
G1 X218.517 Y46.371 E53.5949
G1 X219.038 Y46.908 E53.6173
G1 X219.497 Y47.498 E53.63968
G1 X219.892 Y48.134 E53.66209
G1 X220.216 Y48.808 E53.68447
G1 X220.466 Y49.513 E53.70686
G1 X220.64 Y50.241 E53.72927
G1 X220.735 Y50.983 E53.75166
G1 X220.754 Y51.5 E53.76715
G1 X220.754 Y78.482 E54.57483
G1 X220.714 Y79.229 E54.59722
G1 X220.595 Y79.967 E54.6196
G1 X220.397 Y80.689 E54.64201
G1 X220.124 Y81.385 E54.66439
G1 X219.777 Y82.048 E54.68679
G1 X219.362 Y82.671 E54.7092
G1 X218.883 Y83.245 E54.73158
G1 X218.346 Y83.766 E54.75397
G1 X217.756 Y84.225 E54.77635
G1 X217.12 Y84.62 E54.79876
G1 X216.446 Y84.944 E54.82115
G1 X215.741 Y85.194 E54.84354
G1 X215.013 Y85.368 E54.86594
G1 X214.271 Y85.463 E54.88834
G1 X213.754 Y85.482 E54.90382
G1 X199.626 Y85.482 E55.32673
G1 X199.626 Y86.578 E55.35954
G1 X213.754 Y86.578 E55.78245
G1 X214.501 Y86.618 E55.80484
G1 X215.239 Y86.737 E55.82722
G1 X215.961 Y86.935 E55.84963
G1 X216.657 Y87.208 E55.87201
G1 X217.32 Y87.555 E55.89441
G1 X217.943 Y87.97 E55.91682
G1 X218.517 Y88.449 E55.9392
G1 X219.038 Y88.986 E55.96159
G1 X219.497 Y89.576 E55.98397
G1 X219.892 Y90.212 E56.00638
G1 X220.216 Y90.886 E56.02877
G1 X220.466 Y91.591 E56.05116
G1 X220.64 Y92.319 E56.07356
G1 X220.735 Y93.061 E56.09595
G1 X220.754 Y93.578 E56.11144
G1 X220.754 Y162.371 E58.1707
G1 X233.196 Y162.371 E58.54314
G1 X233.943 Y162.411 E58.56553
G1 X234.681 Y162.53 E58.58791
G1 X235.403 Y162.728 E58.61032
G1 X236.099 Y163.001 E58.6327
G1 X236.762 Y163.348 E58.6551
G1 X237.385 Y163.763 E58.67751
G1 X237.959 Y164.242 E58.69989
G1 X238.48 Y164.779 E58.72228
G1 X238.939 Y165.369 E58.74466
G1 X239.334 Y166.005 E58.76707
G1 X239.658 Y166.679 E58.78946
G1 X239.908 Y167.384 E58.81185
G1 X240.082 Y168.112 E58.83425
G1 X240.177 Y168.854 E58.85665
G1 X240.196 Y169.371 E58.87213
G1 X240.196 Y183.209 E59.28636
G1 X240.156 Y183.956 E59.30875
G1 X240.037 Y184.694 E59.33113
G1 X239.839 Y185.416 E59.35354
G1 X239.566 Y186.112 E59.37592
G1 X239.219 Y186.775 E59.39832
G1 X238.804 Y187.398 E59.42073
G1 X238.325 Y187.972 E59.44311
G1 X237.788 Y188.493 E59.4655
G1 X237.198 Y188.952 E59.48788
G1 X236.562 Y189.347 E59.51029
G1 X235.888 Y189.671 E59.53268
G1 X235.183 Y189.921 E59.55507
G1 X234.455 Y190.095 E59.57747
G1 X233.713 Y190.19 E59.59987
G1 X233.196 Y190.209 E59.61535
G1 X220.754 Y190.209 E59.98779
G1 X220.754 Y203.5 E60.38565
G1 X220.714 Y204.247 E60.40804
G1 X220.595 Y204.985 E60.43042
G1 X220.397 Y205.707 E60.45283
G1 X220.124 Y206.403 E60.47521
G1 X219.777 Y207.066 E60.49761
G1 X219.362 Y207.689 E60.52001
G1 X218.883 Y208.263 E60.54239
G1 X218.346 Y208.784 E60.56479
G1 X217.756 Y209.243 E60.58717
G1 X217.12 Y209.638 E60.60958
G1 X216.446 Y209.962 E60.63196
G1 X215.741 Y210.212 E60.65435
G1 X215.013 Y210.386 E60.67676
G1 X214.271 Y210.481 E60.69915
G1 X213.754 Y210.5 E60.71464
G1 X21.798 Y210.499 E66.46067
G1 X21.013 Y210.455 E66.48421
G1 X19.906 Y210.33 E66.51756
G1 X19.168 Y210.206 E66.53996
G1 X18.387 Y209.984 E66.56426
G1 X17.337 Y209.618 E66.59755
G1 X16.645 Y209.334 E66.61994
G1 X15.922 Y208.938 E66.64461
G1 X14.97 Y208.341 E66.67825
G1 X14.358 Y207.911 E66.70064
G1 X13.739 Y207.361 E66.72543
G1 X12.944 Y206.566 E66.75908
G1 X12.444 Y206.009 E66.78149
G1 X11.964 Y205.335 E66.80626
G1 X11.367 Y204.383 E66.83989
G1 X11.004 Y203.729 E66.86228
G1 X10.686 Y202.966 E66.88703
G1 X10.318 Y201.909 E66.92053
G1 X10.11 Y201.19 E66.94294
G1 X9.973 Y200.393 E66.96714
G1 X9.848 Y199.287 E67.00046
G1 X9.804 Y198.501 E67.02403
G1 X9.805 Y56.494 E71.27488
G1 X9.849 Y55.708 E71.29845
G1 X9.974 Y54.602 E71.33177
G1 X10.098 Y53.864 E71.35417
G1 X10.319 Y53.086 E71.37838
G1 X10.685 Y52.035 E71.41169
G1 X10.969 Y51.343 E71.43408
G1 X11.366 Y50.618 E71.45882
G1 X11.963 Y49.666 E71.49246
G1 X12.393 Y49.054 E71.51485
G1 X12.943 Y48.435 E71.53964
G1 X13.738 Y47.64 E71.57329
G1 X14.295 Y47.14 E71.5957
G1 X14.969 Y46.66 E71.62047
G1 X15.921 Y46.063 E71.6541
G1 X16.575 Y45.7 E71.67649
G1 X17.336 Y45.383 E71.70117
G0 F3600 X17.468 Y45.761
G1 F1800 X18.524 Y45.393 E71.73465
G1 X19.222 Y45.192 E71.75639
G1 X19.957 Y45.067 E71.77871
G1 X21.066 Y44.942 E71.81211
G1 X21.805 Y44.9 E71.83427
G1 X213.754 Y44.9 E77.5801
G1 X214.479 Y44.94 E77.60183
G1 X215.196 Y45.059 E77.62359
G1 X215.895 Y45.257 E77.64534
G1 X216.568 Y45.53 E77.66708
G1 X217.207 Y45.875 E77.68881
G1 X217.804 Y46.289 E77.71056
G1 X218.352 Y46.765 E77.73229
G1 X218.845 Y47.299 E77.75404
G1 X219.275 Y47.884 E77.77578
G1 X219.639 Y48.513 E77.79753
G1 X219.932 Y49.178 E77.81928
G1 X220.15 Y49.871 E77.84103
G1 X220.29 Y50.583 E77.86275
G1 X220.354 Y51.5 E77.89027
G1 X220.354 Y78.482 E78.69795
G1 X220.314 Y79.207 E78.71969
G1 X220.195 Y79.924 E78.74144
G1 X219.997 Y80.623 E78.76319
G1 X219.724 Y81.296 E78.78493
G1 X219.379 Y81.935 E78.80667
G1 X218.965 Y82.532 E78.82841
G1 X218.489 Y83.08 E78.85014
G1 X217.955 Y83.573 E78.8719
G1 X217.37 Y84.003 E78.89363
G1 X216.741 Y84.367 E78.91538
G1 X216.076 Y84.66 E78.93714
G1 X215.383 Y84.878 E78.95888
G1 X214.671 Y85.018 E78.98061
G1 X213.754 Y85.082 E79.00812
G1 X199.226 Y85.082 E79.443
G1 X199.226 Y86.978 E79.49976
G1 X213.754 Y86.978 E79.93464
G1 X214.479 Y87.018 E79.95638
G1 X215.196 Y87.137 E79.97813
G1 X215.895 Y87.335 E79.99988
G1 X216.568 Y87.608 E80.02162
G1 X217.207 Y87.953 E80.04336
G1 X217.804 Y88.367 E80.06511
G1 X218.352 Y88.843 E80.08683
G1 X218.845 Y89.377 E80.10859
G1 X219.275 Y89.962 E80.13032
G1 X219.639 Y90.591 E80.15208
G1 X219.932 Y91.256 E80.17383
G1 X220.15 Y91.949 E80.19558
G1 X220.29 Y92.661 E80.2173
G1 X220.354 Y93.578 E80.24481
G1 X220.354 Y162.771 E82.31605
G1 X233.196 Y162.771 E82.70046
G1 X233.921 Y162.811 E82.72219
G1 X234.638 Y162.93 E82.74395
G1 X235.337 Y163.128 E82.7657
G1 X236.01 Y163.401 E82.78744
G1 X236.649 Y163.746 E82.80918
G1 X237.246 Y164.16 E82.83092
G1 X237.794 Y164.636 E82.85265
G1 X238.287 Y165.17 E82.87441
G1 X238.717 Y165.755 E82.89614
G1 X239.081 Y166.384 E82.91789
G1 X239.374 Y167.049 E82.93965
G1 X239.592 Y167.742 E82.96139
G1 X239.732 Y168.454 E82.98311
G1 X239.796 Y169.371 E83.01063
G1 X239.796 Y183.209 E83.42486
G1 X239.756 Y183.934 E83.44659
G1 X239.637 Y184.651 E83.46835
G1 X239.439 Y185.35 E83.4901
G1 X239.166 Y186.023 E83.51184
G1 X238.821 Y186.662 E83.53358
G1 X238.407 Y187.259 E83.55532
G1 X237.931 Y187.807 E83.57705
G1 X237.397 Y188.3 E83.59881
G1 X236.812 Y188.73 E83.62054
G1 X236.183 Y189.094 E83.64229
G1 X235.518 Y189.387 E83.66405
