;FLAVOR:Marlin
;TIME:32322
;Filament used: 32.8744m
;Layer height: 0.2
;MINX:8.161
;MINY:43.7
;MINZ:0.18
;MAXX:241.839
;MAXY:211.3
;MAXZ:31.98
;Generated with Cura_SteamEngine 5.2.2
M140 S70
M105
M190 S70
M104 S215
M105
M109 S215
M82 ;absolute extrusion mode
G21 ;metric values
G90 ;absolute positioning
M82 ;set extruder to absolute mode
M107 ;start with the fan off
G28 X0 Y0 ;move X/Y to min endstops
M300 S1318 P266
G28 Z0 ;move Z to min endstops
G0 Z0.2
G92 E0 ;zero the extruded length
G1 X40 E25 F400 ; Extrude 25mm of filament in a 4cm line. Reduce speed (F) if you have a nozzle smaller than 0.4mm!
G92 E0 ;zero the extruded length again
G1 E-1 F500 ; Retract a little
G1 X80 F4000 ; Quickly wipe away from the filament line
M117 ; Printing…
G5
G92 E0
G92 E0
G1 F1500 E-6.5
;LAYER_COUNT:160
;LAYER:0
M107
G0 F3600 X32.311 Y45.334 Z0.18
;TYPE:SKIRT
G1 F1500 E0
G1 F1800 X32.959 Y44.883 E0.02363
G1 X33.65 Y44.499 E0.0473
G1 X34.375 Y44.187 E0.07092
G1 X35.128 Y43.95 E0.09455
G1 X35.902 Y43.791 E0.11821
G1 X36.784 Y43.7 E0.14475
G1 X229.045 Y43.701 E5.89991
G1 X229.919 Y43.75 E5.92612
G1 X231.027 Y43.875 E5.95949
G1 X231.807 Y44.003 E5.98315
G1 X232.72 Y44.261 E6.01155
G1 X233.77 Y44.627 E6.04484
G1 X234.502 Y44.924 E6.06849
G1 X235.347 Y45.384 E6.09729
G1 X236.299 Y45.981 E6.13092
G1 X236.946 Y46.434 E6.15457
G1 X237.674 Y47.077 E6.18364
G1 X238.468 Y47.872 E6.21727
G1 X238.997 Y48.458 E6.24091
G1 X239.557 Y49.24 E6.2697
G1 X240.154 Y50.192 E6.30334
G1 X240.539 Y50.881 E6.32696
G1 X240.91 Y51.765 E6.35566
G1 X241.279 Y52.822 E6.38917
G1 X241.501 Y53.58 E6.41282
G1 X241.666 Y54.524 E6.4415
G1 X241.79 Y55.63 E6.47482
G1 X241.839 Y56.499 E6.50087
G1 X241.838 Y198.506 E10.75172
G1 X241.789 Y199.375 E10.77778
G1 X241.665 Y200.481 E10.81109
G1 X241.538 Y201.26 E10.83472
G1 X241.278 Y202.183 E10.86342
G1 X240.911 Y203.234 E10.89675
G1 X240.613 Y203.966 E10.92041
G1 X240.155 Y204.807 E10.94907
G1 X239.558 Y205.759 E10.98271
G1 X239.105 Y206.406 E11.00635
G1 X238.469 Y207.127 E11.03513
G1 X237.675 Y207.922 E11.06876
G1 X237.089 Y208.452 E11.09242
G1 X236.3 Y209.018 E11.12148
G1 X235.348 Y209.615 E11.15512
G1 X234.659 Y210 E11.17875
G1 X233.775 Y210.371 E11.20744
G1 X232.724 Y210.738 E11.24077
G1 X231.967 Y210.96 E11.26438
G1 X231.029 Y211.125 E11.29289
G1 X229.914 Y211.251 E11.32648
G1 X229.038 Y211.3 E11.35274
G1 X37.089 Y211.3 E17.09857
G1 X36.3 Y211.26 E17.12222
G1 X35.52 Y211.141 E17.14584
G1 X34.755 Y210.943 E17.16949
G1 X34.015 Y210.669 E17.19311
G1 X33.306 Y210.321 E17.21675
G1 X32.635 Y209.903 E17.24042
G1 X32.011 Y209.42 E17.26404
G1 X31.438 Y208.877 E17.28767
G1 X30.923 Y208.278 E17.31131
G1 X30.472 Y207.63 E17.33495
G1 X30.088 Y206.939 E17.35861
G1 X29.776 Y206.214 E17.38224
G1 X29.539 Y205.461 E17.40587
G1 X29.38 Y204.687 E17.42952
G1 X29.289 Y203.805 E17.45606
G1 X29.289 Y183.209 E18.07259
G1 X29.329 Y182.42 E18.09623
G1 X29.448 Y181.64 E18.11985
G1 X29.646 Y180.875 E18.14351
G1 X29.92 Y180.135 E18.16713
G1 X30.268 Y179.426 E18.19077
G1 X30.686 Y178.755 E18.21444
G1 X31.169 Y178.131 E18.23806
G1 X31.712 Y177.558 E18.26169
G1 X32.311 Y177.043 E18.28533
G1 X32.959 Y176.592 E18.30897
G1 X33.482 Y176.301 E18.32688
G1 X32.635 Y175.774 E18.35674
G1 X32.011 Y175.291 E18.38036
G1 X31.438 Y174.748 E18.40399
G1 X30.923 Y174.149 E18.42764
G1 X30.472 Y173.501 E18.45127
G1 X30.088 Y172.81 E18.47494
G1 X29.776 Y172.085 E18.49856
G1 X29.539 Y171.332 E18.52219
G1 X29.38 Y170.558 E18.54585
G1 X29.289 Y169.676 E18.57239
G1 X29.289 Y101.378 E20.61683
G1 X15.961 Y101.378 E21.01579
G1 X15.172 Y101.338 E21.03944
G1 X14.392 Y101.219 E21.06306
G1 X13.627 Y101.021 E21.08671
G1 X12.887 Y100.747 E21.11033
G1 X12.178 Y100.399 E21.13398
G1 X11.507 Y99.981 E21.15764
G1 X10.883 Y99.498 E21.18126
G1 X10.31 Y98.955 E21.20489
G1 X9.795 Y98.356 E21.22854
G1 X9.344 Y97.708 E21.25217
G1 X8.96 Y97.017 E21.27583
G1 X8.648 Y96.292 E21.29946
G1 X8.411 Y95.539 E21.32309
G1 X8.252 Y94.765 E21.34674
G1 X8.161 Y93.883 E21.37329
G1 X8.161 Y78.482 E21.8343
G1 X8.201 Y77.693 E21.85795
G1 X8.32 Y76.913 E21.88157
G1 X8.518 Y76.148 E21.90522
G1 X8.792 Y75.408 E21.92884
G1 X9.14 Y74.699 E21.95249
G1 X9.558 Y74.028 E21.97615
G1 X10.041 Y73.404 E21.99977
G1 X10.584 Y72.831 E22.0234
G1 X11.183 Y72.316 E22.04705
G1 X11.831 Y71.865 E22.07068
G1 X12.522 Y71.481 E22.09435
G1 X13.247 Y71.169 E22.11797
G1 X14 Y70.932 E22.1416
G1 X14.774 Y70.773 E22.16526
G1 X15.656 Y70.682 E22.1918
G1 X29.289 Y70.682 E22.59989
G1 X29.289 Y51.5 E23.17409
G1 X29.329 Y50.711 E23.19773
G1 X29.448 Y49.931 E23.22135
G1 X29.646 Y49.166 E23.24501
G1 X29.92 Y48.426 E23.26863
G1 X30.268 Y47.717 E23.29227
G1 X30.686 Y47.046 E23.31593
G1 X31.169 Y46.422 E23.33955
G1 X31.712 Y45.849 E23.36319
G1 X32.311 Y45.334 E23.38683
G0 F3600 X32.7 Y45.542
G1 F1800 X33.342 Y45.119 E23.40985
G1 X34.025 Y44.764 E23.43289
G1 X34.74 Y44.483 E23.45588
G1 X35.482 Y44.277 E23.47894
G1 X36.24 Y44.149 E23.50195
G1 X37.089 Y44.1 E23.5274
G1 X229.045 Y44.101 E29.27344
G1 X229.875 Y44.148 E29.29832
G1 X230.983 Y44.273 E29.3317
G1 X231.741 Y44.398 E29.3547
G1 X232.589 Y44.638 E29.38108
G1 X233.639 Y45.004 E29.41436
G1 X234.351 Y45.295 E29.43739
G1 X235.134 Y45.723 E29.4641
G1 X236.086 Y46.32 E29.49774
G1 X236.716 Y46.762 E29.52077
G1 X237.391 Y47.36 E29.54777
G1 X238.185 Y48.155 E29.5814
G1 X238.699 Y48.726 E29.6044
G1 X239.218 Y49.453 E29.63114
G1 X239.815 Y50.405 E29.66477
G1 X240.189 Y51.077 E29.6878
G1 X240.533 Y51.897 E29.71441
G1 X240.902 Y52.954 E29.74793
G1 X241.117 Y53.692 E29.77094
G1 X241.269 Y54.569 E29.79758
G1 X241.393 Y55.675 E29.83089
G1 X241.439 Y56.499 E29.8556
G1 X241.438 Y198.506 E34.10645
G1 X241.392 Y199.33 E34.13116
G1 X241.268 Y200.436 E34.16447
G1 X241.143 Y201.195 E34.1875
G1 X240.9 Y202.052 E34.21416
G1 X240.533 Y203.103 E34.24749
G1 X240.242 Y203.815 E34.27051
G1 X239.816 Y204.594 E34.29709
G1 X239.219 Y205.546 E34.33073
G1 X238.777 Y206.176 E34.35376
G1 X238.186 Y206.844 E34.38046
G1 X237.392 Y207.639 E34.4141
G1 X236.821 Y208.155 E34.43713
G1 X236.087 Y208.679 E34.46413
G1 X235.135 Y209.276 E34.49777
G1 X234.463 Y209.65 E34.52079
G1 X233.644 Y209.993 E34.54737
G1 X232.593 Y210.36 E34.58069
G1 X231.854 Y210.576 E34.60374
G1 X230.984 Y210.727 E34.63017
G1 X229.869 Y210.853 E34.66376
G1 X229.038 Y210.9 E34.68867
G1 X37.089 Y210.9 E40.4345
G1 X36.321 Y210.86 E40.45752
G1 X35.561 Y210.741 E40.48055
G1 X34.818 Y210.543 E40.50356
G1 X34.099 Y210.269 E40.5266
G1 X33.413 Y209.922 E40.54961
G1 X32.766 Y209.506 E40.57263
G1 X32.166 Y209.025 E40.59565
G1 X31.619 Y208.484 E40.61868
G1 X31.131 Y207.889 E40.64172
G1 X30.708 Y207.247 E40.66473
G1 X30.353 Y206.564 E40.68777
G1 X30.072 Y205.849 E40.71077
G1 X29.866 Y205.107 E40.73382
G1 X29.738 Y204.349 E40.75683
G1 X29.689 Y203.5 E40.78229
G1 X29.689 Y183.209 E41.38968
G1 X29.729 Y182.441 E41.4127
G1 X29.848 Y181.681 E41.43573
G1 X30.046 Y180.938 E41.45875
G1 X30.32 Y180.219 E41.48178
G1 X30.667 Y179.533 E41.50479
G1 X31.083 Y178.886 E41.52782
G1 X31.564 Y178.286 E41.55084
G1 X32.105 Y177.739 E41.57387
G1 X32.7 Y177.251 E41.5969
G1 X33.342 Y176.828 E41.61991
G1 X34.025 Y176.473 E41.64296
G1 X34.492 Y176.29 E41.65797
G1 X34.099 Y176.14 E41.67056
G1 X33.413 Y175.793 E41.69358
G1 X32.766 Y175.377 E41.7166
G1 X32.166 Y174.896 E41.73962
G1 X31.619 Y174.355 E41.76265
G1 X31.131 Y173.76 E41.78568
G1 X30.708 Y173.118 E41.8087
G1 X30.353 Y172.435 E41.83174
G1 X30.072 Y171.72 E41.85474
G1 X29.866 Y170.978 E41.87779
G1 X29.738 Y170.22 E41.9008
G1 X29.689 Y169.371 E41.92626
G1 X29.689 Y100.978 E43.97354
G1 X15.961 Y100.978 E44.38448
G1 X15.193 Y100.938 E44.4075
G1 X14.433 Y100.819 E44.43052
G1 X13.69 Y100.621 E44.45354
G1 X12.971 Y100.347 E44.47657
G1 X12.285 Y100 E44.49959
G1 X11.638 Y99.584 E44.52261
G1 X11.038 Y99.103 E44.54563
G1 X10.491 Y98.562 E44.56866
G1 X10.003 Y97.967 E44.59169
G1 X9.58 Y97.325 E44.61471
G1 X9.225 Y96.642 E44.63775
G1 X8.944 Y95.927 E44.66075
G1 X8.738 Y95.185 E44.6838
G1 X8.61 Y94.427 E44.70681
G1 X8.561 Y93.578 E44.73227
G1 X8.561 Y78.482 E45.18415
G1 X8.601 Y77.714 E45.20717
G1 X8.72 Y76.954 E45.2302
G1 X8.918 Y76.211 E45.25322
G1 X9.192 Y75.492 E45.27625
G1 X9.539 Y74.806 E45.29926
G1 X9.955 Y74.159 E45.32229
G1 X10.436 Y73.559 E45.34531
G1 X10.977 Y73.012 E45.36834
G1 X11.572 Y72.524 E45.39137
G1 X12.214 Y72.101 E45.41438
G1 X12.897 Y71.746 E45.43743
G1 X13.612 Y71.465 E45.46042
G1 X14.354 Y71.259 E45.48347
G1 X15.112 Y71.131 E45.50649
G1 X15.961 Y71.082 E45.53194
G1 X29.689 Y71.082 E45.94288
G1 X29.689 Y51.5 E46.52905
G1 X29.729 Y50.732 E46.55207
G1 X29.848 Y49.972 E46.5751
G1 X30.046 Y49.229 E46.59811
G1 X30.32 Y48.51 E46.62114
G1 X30.667 Y47.824 E46.64416
G1 X31.083 Y47.177 E46.66718
G1 X31.564 Y46.577 E46.6902
G1 X32.105 Y46.03 E46.71323
G1 X32.7 Y45.542 E46.73627
G0 F3600 X33.087 Y45.757
G1 F1800 X33.723 Y45.362 E46.75868
G1 X34.397 Y45.038 E46.78106
G1 X35.102 Y44.788 E46.80345
G1 X35.83 Y44.614 E46.82586
G1 X36.572 Y44.519 E46.84825
G1 X37.089 Y44.5 E46.86374
G1 X229.045 Y44.501 E52.60977
G1 X229.83 Y44.545 E52.63331
G1 X230.938 Y44.67 E52.66669
G1 X231.676 Y44.794 E52.68909
G1 X232.457 Y45.016 E52.71339
G1 X233.507 Y45.382 E52.74668
G1 X234.199 Y45.666 E52.76907
G1 X234.922 Y46.062 E52.79374
G1 X235.874 Y46.659 E52.82738
G1 X236.486 Y47.089 E52.84977
G1 X237.108 Y47.642 E52.87468
G1 X237.902 Y48.437 E52.90832
G1 X238.401 Y48.994 E52.9307
G1 X238.879 Y49.665 E52.95537
G1 X239.476 Y50.617 E52.989
G1 X239.839 Y51.271 E53.01139
G1 X240.155 Y52.029 E53.03598
G1 X240.524 Y53.086 E53.06949
G1 X240.732 Y53.804 E53.09186
G1 X240.871 Y54.613 E53.11644
G1 X240.995 Y55.719 E53.14975
G1 X241.039 Y56.499 E53.17314
G1 X241.038 Y198.506 E57.42399
G1 X240.994 Y199.286 E57.44738
G1 X240.87 Y200.392 E57.48069
G1 X240.747 Y201.13 E57.50309
G1 X240.523 Y201.92 E57.52767
G1 X240.156 Y202.971 E57.56099
G1 X239.872 Y203.663 E57.58338
G1 X239.477 Y204.382 E57.60794
G1 X238.88 Y205.334 E57.64158
G1 X238.45 Y205.946 E57.66397
G1 X237.903 Y206.562 E57.68863
G1 X237.109 Y207.357 E57.72226
G1 X236.553 Y207.857 E57.74464
G1 X235.875 Y208.34 E57.76956
G1 X234.923 Y208.937 E57.8032
G1 X234.269 Y209.3 E57.82559
G1 X233.512 Y209.616 E57.85014
G1 X232.461 Y209.983 E57.88347
G1 X231.742 Y210.191 E57.90587
G1 X230.939 Y210.33 E57.93027
G1 X229.824 Y210.456 E57.96386
G1 X229.038 Y210.5 E57.98742
G1 X37.089 Y210.5 E63.73325
G1 X36.342 Y210.46 E63.75564
G1 X35.604 Y210.341 E63.77802
G1 X34.882 Y210.143 E63.80043
G1 X34.186 Y209.87 E63.82281
G1 X33.523 Y209.523 E63.84521
G1 X32.9 Y209.108 E63.86761
G1 X32.326 Y208.629 E63.88999
G1 X31.805 Y208.092 E63.91239
G1 X31.346 Y207.502 E63.93477
G1 X30.951 Y206.866 E63.95718
G1 X30.627 Y206.192 E63.97956
G1 X30.377 Y205.487 E64.00195
G1 X30.203 Y204.759 E64.02436
G1 X30.108 Y204.017 E64.04675
G1 X30.089 Y203.5 E64.06224
G1 X30.089 Y183.209 E64.66963
G1 X30.129 Y182.462 E64.69202
G1 X30.248 Y181.724 E64.7144
G1 X30.446 Y181.002 E64.73681
G1 X30.719 Y180.306 E64.75919
G1 X31.066 Y179.643 E64.78159
G1 X31.481 Y179.02 E64.804
G1 X31.96 Y178.446 E64.82638
G1 X32.497 Y177.925 E64.84878
G1 X33.087 Y177.466 E64.87115
G1 X33.723 Y177.071 E64.89356
G1 X34.397 Y176.747 E64.91595
G1 X35.102 Y176.497 E64.93834
G1 X36.016 Y176.278 E64.96647
G1 X35.604 Y176.212 E64.97896
G1 X34.882 Y176.014 E65.00137
G1 X34.186 Y175.741 E65.02375
G1 X33.523 Y175.394 E65.04615
G1 X32.9 Y174.979 E65.06856
G1 X32.326 Y174.5 E65.09094
G1 X31.805 Y173.963 E65.11334
G1 X31.346 Y173.373 E65.13571
G1 X30.951 Y172.737 E65.15812
G1 X30.627 Y172.063 E65.18051
G1 X30.377 Y171.358 E65.2029
G1 X30.203 Y170.63 E65.22531
G1 X30.108 Y169.888 E65.2477
G1 X30.089 Y169.371 E65.26319
G1 X30.089 Y100.578 E67.32244
G1 X15.961 Y100.578 E67.74535
G1 X15.214 Y100.538 E67.76775
G1 X14.476 Y100.419 E67.79012
G1 X13.754 Y100.221 E67.81253
G1 X13.058 Y99.948 E67.83491
G1 X12.395 Y99.601 E67.85731
G1 X11.772 Y99.186 E67.87972
G1 X11.198 Y98.707 E67.9021
G1 X10.677 Y98.17 E67.9245
G1 X10.218 Y97.58 E67.94687
G1 X9.823 Y96.944 E67.96928
G1 X9.499 Y96.27 E67.99167
G1 X9.249 Y95.565 E68.01406
G1 X9.075 Y94.837 E68.03647
G1 X8.98 Y94.095 E68.05886
G1 X8.961 Y93.578 E68.07435
G1 X8.961 Y78.482 E68.52623
G1 X9.001 Y77.735 E68.54862
G1 X9.12 Y76.997 E68.571
G1 X9.318 Y76.275 E68.59341
G1 X9.591 Y75.579 E68.61579
G1 X9.938 Y74.916 E68.63819
G1 X10.353 Y74.293 E68.6606
G1 X10.832 Y73.719 E68.68298
G1 X11.369 Y73.198 E68.70537
G1 X11.959 Y72.739 E68.72775
G1 X12.595 Y72.344 E68.75016
G1 X13.269 Y72.02 E68.77255
G1 X13.974 Y71.77 E68.79494
G1 X14.702 Y71.596 E68.81734
G1 X15.444 Y71.501 E68.83974
G1 X15.961 Y71.482 E68.85522
G1 X30.089 Y71.482 E69.27813
G1 X30.089 Y51.5 E69.87628
G1 X30.129 Y50.753 E69.89867
G1 X30.248 Y50.015 E69.92105
G1 X30.446 Y49.293 E69.94346
G1 X30.719 Y48.597 E69.96584
G1 X31.066 Y47.934 E69.98824
G1 X31.481 Y47.311 E70.01064
G1 X31.96 Y46.737 E70.03302
G1 X32.497 Y46.216 E70.05542
G1 X33.087 Y45.757 E70.0778
G0 F3600 X33.473 Y45.979
G1 F1800 X34.102 Y45.615 E70.09955
G1 X34.767 Y45.322 E70.1213
G1 X35.46 Y45.104 E70.14305
G1 X36.172 Y44.964 E70.16477
G1 X37.089 Y44.9 E70.19229
G1 X229.045 Y44.901 E75.93832
G1 X229.785 Y44.943 E75.96051
G1 X230.893 Y45.068 E75.99388
G1 X231.609 Y45.189 E76.01562
G1 X232.325 Y45.394 E76.03792
G1 X233.375 Y45.76 E76.0712
G1 X234.047 Y46.036 E76.09295
G1 X234.709 Y46.4 E76.11556
G1 X235.661 Y46.997 E76.1492
G1 X236.255 Y47.417 E76.17098
G1 X236.825 Y47.925 E76.19383
G1 X237.619 Y48.72 E76.22746
G1 X238.103 Y49.261 E76.24919
G1 X238.541 Y49.878 E76.27184
G1 X239.138 Y50.83 E76.30548
G1 X239.489 Y51.465 E76.3272
G1 X239.777 Y52.161 E76.34975
G1 X240.146 Y53.218 E76.38326
G1 X240.348 Y53.916 E76.40501
G1 X240.474 Y54.658 E76.42754
G1 X240.598 Y55.764 E76.46086
G1 X240.639 Y56.499 E76.48289
G1 X240.638 Y198.506 E80.73375
G1 X240.597 Y199.241 E80.75578
G1 X240.473 Y200.347 E80.7891
G1 X240.352 Y201.064 E80.81086
G1 X240.145 Y201.788 E80.8334
G1 X239.778 Y202.839 E80.86673
G1 X239.501 Y203.51 E80.88846
G1 X239.139 Y204.169 E80.91096
G1 X238.542 Y205.121 E80.9446
G1 X238.122 Y205.715 E80.96638
G1 X237.62 Y206.279 E80.98898
G1 X236.826 Y207.074 E81.02261
G1 X236.285 Y207.559 E81.04436
G1 X235.662 Y208.002 E81.06725
G1 X234.71 Y208.599 E81.10088
G1 X234.075 Y208.95 E81.1226
G1 X233.38 Y209.238 E81.14512
G1 X232.329 Y209.605 E81.17844
G1 X231.631 Y209.806 E81.20019
G1 X230.894 Y209.932 E81.22257
G1 X229.779 Y210.058 E81.25616
G1 X229.038 Y210.1 E81.27837
G1 X37.089 Y210.1 E87.0242
G1 X36.364 Y210.06 E87.04593
G1 X35.647 Y209.941 E87.06769
G1 X34.948 Y209.743 E87.08944
G1 X34.275 Y209.47 E87.11118
G1 X33.636 Y209.125 E87.13292
G1 X33.039 Y208.711 E87.15466
G1 X32.491 Y208.235 E87.17639
G1 X31.998 Y207.701 E87.19815
G1 X31.568 Y207.116 E87.21988
G1 X31.204 Y206.487 E87.24163
G1 X30.911 Y205.822 E87.26339
G1 X30.693 Y205.129 E87.28513
G1 X30.553 Y204.417 E87.30685
G1 X30.489 Y203.5 E87.33437
G1 X30.489 Y183.209 E87.94176
G1 X30.529 Y182.484 E87.9635
G1 X30.648 Y181.767 E87.98526
G1 X30.846 Y181.068 E88.007
G1 X31.119 Y180.395 E88.02874
G1 X31.464 Y179.756 E88.05048
G1 X31.878 Y179.159 E88.07223
G1 X32.354 Y178.611 E88.09396
G1 X32.888 Y178.118 E88.11571
G1 X33.473 Y177.688 E88.13744
G1 X34.102 Y177.324 E88.1592
G1 X34.767 Y177.031 E88.18095
G1 X35.46 Y176.813 E88.2027
G1 X36.172 Y176.673 E88.22442
G1 X37.089 Y176.609 E88.25194
G1 X49.931 Y176.609 E88.63635
G1 X49.931 Y175.971 E88.65545
G1 X37.089 Y175.971 E89.03986
G1 X36.364 Y175.931 E89.0616
G1 X35.647 Y175.812 E89.08335
G1 X34.948 Y175.614 E89.1051
G1 X34.275 Y175.341 E89.12684
G1 X33.636 Y174.996 E89.14858
G1 X33.039 Y174.582 E89.17033
G1 X32.491 Y174.106 E89.19205
G1 X31.998 Y173.572 E89.21381
G1 X31.568 Y172.987 E89.23554
G1 X31.204 Y172.358 E89.2573
G1 X30.911 Y171.693 E89.27905
G1 X30.693 Y171 E89.3008
G1 X30.553 Y170.288 E89.32252
G1 X30.489 Y169.371 E89.35003
G1 X30.489 Y100.178 E91.42126
G1 X15.961 Y100.178 E91.85615
G1 X15.236 Y100.138 E91.87788
G1 X14.519 Y100.019 E91.89964
G1 X13.82 Y99.821 E91.92139
G1 X13.147 Y99.548 E91.94313
G1 X12.508 Y99.203 E91.96486
G1 X11.911 Y98.789 E91.98661
G1 X11.363 Y98.313 E92.00834
G1 X10.87 Y97.779 E92.03009
G1 X10.44 Y97.194 E92.05183
